img/svg/logo-mobile.svg

<svg width="32" height="36" viewBox="0 0 32 36" fill="none" xmlns="http://www.w3.org/2000/svg">
<g id="Icons&#38;Logo/Logo Drink2Go">
<path id="2" fill-rule="evenodd" clip-rule="evenodd" d="M32 18C32 20.8737 31.4014 23.5901 30.3369 26H17C19.4627 22.2281 22 17.6606 22 13C22 7.00236 17.9385 1.95335 12.4158 0.453392C13.5681 0.156712 14.7678 0 16 0C24.8366 0 32 8.05888 32 18ZM18 13C18 8.02944 13.9706 4 9 4C2.34935 4 0 12.5071 0 18C0 27.9411 7.16344 36 16 36C20.7387 36 24.9962 33.6825 27.9259 30H9C9.35183 29.5514 9.72025 29.0891 10.0987 28.6142C13.6157 24.2012 18 18.6997 18 13Z" fill="#7859CF"/>
</g>
</svg>

<svg width="32" height="36" fill="none" xmlns="http://www.w3.org/2000/svg"><path fill-rule="evenodd" clip-rule="evenodd" d="M32 18c0 2.874-.599 5.59-1.663 8H17c2.463-3.772 5-8.34 5-13C22 7.002 17.939 1.953 12.416.453A14.35 14.35 0 0 1 16 0c8.837 0 16 8.059 16 18Zm-14-5a9 9 0 0 0-9-9c-6.65 0-9 8.507-9 14 0 9.941 7.163 18 16 18 4.739 0 8.996-2.318 11.926-6H9c.352-.449.72-.91 1.099-1.386C13.616 24.201 18 18.7 18 13Z" fill="#7859CF"/></svg>
